Simply-White-Circles/scalable/apps/vmware-view.svg

<svg xmlns="http://www.w3.org/2000/svg" width="48" height="48" viewBox="0 0 12.7 12.7"><path d="M6.34.07a6.29 6.29 0 0 0-6.29 6.3 6.29 6.29 0 0 0 6.3 6.28 6.29 6.29 0 0 0 6.28-6.29A6.29 6.29 0 0 0 6.34.07zM6.32 1l.01.01a5.4 5.4 0 0 1 5.4 5.4 5.4 5.4 0 0 1-5.4 5.41 5.4 5.4 0 0 1-5.41-5.4A5.4 5.4 0 0 1 6.32 1zM3.7 3.17c-.29 0-.53.24-.53.53v3.97c0 .3.24.53.53.53H6.1V9H5.03a.26.26 0 1 0 0 .52h2.64a.26.26 0 1 0 0-.52H6.61v-.8H9c.29 0 .52-.23.52-.53V3.7c0-.29-.23-.53-.52-.53H3.7zm0 .53H9v3.97H3.7V3.7zm2.12.53v.8h1.06v-.8H5.82zm-.8 1.06v.8H6.1v-.8H5.03zm1.6 0v.8h1.05v-.8H6.61zM4.22 6.35v.8H5.3v-.8H4.23zm1.6 0v.8h1.05v-.8H5.82zm1.58 0v.8h1.06v-.8H7.4z" fill="#e6e6e6"/></svg>

<?xml version="1.0" encoding="UTF-8" standalone="no"?>
<svg
   xmlns:dc="http://purl.org/dc/elements/1.1/"
   xmlns:cc="http://creativecommons.org/ns#"
   xmlns:rdf="http://www.w3.org/1999/02/22-rdf-syntax-ns#"
   xmlns:svg="http://www.w3.org/2000/svg"
   xmlns="http://www.w3.org/2000/svg"
   xmlns:sodipodi="http://sodipodi.sourceforge.net/DTD/sodipodi-0.dtd"
   xmlns:inkscape="http://www.inkscape.org/namespaces/inkscape"
   width="48"
   height="48"
   viewBox="0 0 12.7 12.7"
   version="1.1"
   id="svg4"
   sodipodi:docname="vmware-view.svg"
   inkscape:version="0.92.4 (5da689c313, 2019-01-14)">
  <metadata
     id="metadata10">
    <rdf:RDF>
      <cc:Work
         rdf:about="">
        <dc:format>image/svg+xml</dc:format>
        <dc:type
           rdf:resource="http://purl.org/dc/dcmitype/StillImage" />
        <dc:title></dc:title>
      </cc:Work>
    </rdf:RDF>
  </metadata>
  <defs
     id="defs8" />
  <sodipodi:namedview
     pagecolor="#ffffff"
     bordercolor="#666666"
     borderopacity="1"
     objecttolerance="10"
     gridtolerance="10"
     guidetolerance="10"
     inkscape:pageopacity="0"
     inkscape:pageshadow="2"
     inkscape:window-width="1087"
     inkscape:window-height="480"
     id="namedview6"
     showgrid="false"
     inkscape:zoom="4.9166667"
     inkscape:cx="2.1355932"
     inkscape:cy="24"
     inkscape:window-x="0"
     inkscape:window-y="25"
     inkscape:window-maximized="0"
     inkscape:current-layer="svg4" />
  <path
     d="M 6.34,0.07 A 6.29,6.29 0 0 0 0.05,6.37 6.29,6.29 0 0 0 6.35,12.65 6.29,6.29 0 0 0 12.63,6.36 6.29,6.29 0 0 0 6.34,0.07 Z M 6.32,1 6.33,1.01 a 5.4,5.4 0 0 1 5.4,5.4 5.4,5.4 0 0 1 -5.4,5.41 A 5.4,5.4 0 0 1 0.92,6.42 5.4,5.4 0 0 1 6.32,1 Z M 3.7,3.17 C 3.41,3.17 3.17,3.41 3.17,3.7 v 3.97 c 0,0.3 0.24,0.53 0.53,0.53 H 6.1 V 9 H 5.03 a 0.26,0.26 0 1 0 0,0.52 H 7.67 A 0.26,0.26 0 1 0 7.67,9 H 6.61 V 8.2 H 9 C 9.29,8.2 9.52,7.97 9.52,7.67 V 3.7 C 9.52,3.41 9.29,3.17 9,3.17 Z m 0,0.53 H 9 V 7.67 H 3.7 Z m 2.12,0.53 v 0.8 h 1.06 v -0.8 z m -0.8,1.06 v 0.8 H 6.1 V 5.29 H 5.03 Z m 1.6,0 v 0.8 H 7.67 V 5.29 H 6.61 Z m -2.4,1.06 v 0.8 H 5.3 V 6.35 H 4.23 Z m 1.6,0 v 0.8 h 1.05 v -0.8 z m 1.58,0 v 0.8 h 1.06 v -0.8 z"
     id="path2"
     inkscape:connector-curvature="0"
     style="fill:#e6e6e6" />
</svg>
